X: 1
T: Crazy Harp-Ozzy-Cyrano of Meneldor
C: Cyrano of Meneldor
M: 4/4
L: 1/8
Q:1/4=135
K:G
z8|EE z6|GG z2 DD z2|
EE z6|CC z2 DD z2|EE z6|GG z2 DD z2|
EE z6|CC z2 DD z2|
EE BE CE BE|AG FG AG FD|
EE BE CE BE|AG FG AG FD|EE BE CE BE|AG FG AG FD|
EE BE CE BA|=C4 D4|GG/2G/2 D/2G/2G G/2G/2A G/2G/2G/2G/2|GG/2G/2 G/2G/2B z2 A/2B/2G|
GG/2G/2 D/2G/2G G/2G/2A G/2G/2G/2G/2|GG/2G/2 G/2G/2B2A/2=F/2 E/2C/2B/2A/2|GG/2G/2 D/2G/2G G/2G/2A G/2G/2G/2G/2|GG/2G/2 G/2G/2B z2 A/2B/2G|
=F,G,/2G,/2 D,/2G,3/2 CD D,E,|CE, ^F,B,4-B,|B,D, B,3E, D,C-|C2 Gc e4|
B,D, E,2 E,D, E,/2D,/2C,-|C,4 C,C, B,A,|D,2 D,2 G,F, E,A,-|A,2 A,2 A,^F, F,2|
A,/2A,/2B,/2D/2 D/2B,/2C/2B,/2 ^A,/2B,/2B,/2=A,/2 G,/2E,/2G,/2E,/2|D,/2B,/2D,/2B,/2 ^A,/2F,/2^A,/2=A,/2 ^A,/2=A,/2^A,/2=A,/2 G,2|D,4 G,F, E,D-|D4 DF, F,D,|
B,D, B,B, F,E, F,G,-|G,F, E,F,2E, F,2|B,D, B,E, E,E, D,C,-|C,2 C,D2D, E,F,|
G,G,/2G,/2 D/2G,/2G, G,/2G,/2A G,/2G,/2G,/2G,/2|GG,/2G,/2 G,/2G,/2B, z2 A,/2B,/2G,|G,G,/2G,/2 D/2G,/2G, G,/2G,/2A G,/2G,/2G,/2G,/2|GG,/2G,/2 G,/2G,/2B, zA,/2=F,/2 E,/2C,/2B,/2A,/2|
G,G,/2G,/2 D/2G,/2G, G,/2G,/2A G,/2G,/2G,/2G,/2|GG,/2G,/2 G,/2G,/2B, z2 A,/2B,/2G,|G,G,/2G,/2 D/2G,/2G, G,/2G,/2A G,/2G,/2G,/2G,/2|GG,/2G,/2 G,/2G,/2B, z2 A,/2B,/2G,|
D,B, G,B,/2G,/2 =F,/2D,/2D D,E,|CE, ^F,G,4-G,|
B,D, B,3E, D,C-|C2 Gc e4|B,D, E,2 E,D, E,/2D,/2C,-|C,4 CC B,A,|
D,2 D,2 G,F, E,A,-|A,2 ^F,2 A,D, =FD|B/2G/2E/2c/2 ^G/2=F/2^c/2A/2 =c/2^A/2D/2d/2 B/2=G/2e/2c/2|^G/2e/2^c/2=A/2 =f/2d/2^c/2=f/2 ^d/2B/2=G/2g/2 e/2=c/2^g/2a/2|
D,4 G,F, E,D-|D4 DF, F,D,|B,D, B,B, F,E, F,G,-|G,F, E,F,2E, F,2|
B,D, B,E, E,E, D,C,-|C,C CD2D3|G,E,6-E,|G,G, G,F, D,D, D,D,|
G,E,6-E,|CC CD D,2 D,2|EE6-E|G,2 G,A, D2 D,D,|
E8|C2 C2 D2 DD,|B/2G/2E/2B/2 E/2G/2E/2B/2 E/2G/2E/2G/2 B/2B/2G/2G/2|c/2c/2E/2E/2 c/2G/2E/2c/2 E/2E/2G/2G/2 c/2G/2E/2E/2|
G/2G/2E/2E/2 G/2G/2E/2E/2 =F/2=F/2=F/2C/2 E/2E/2C/2D/2|E2 GE4-E|(3=g2^f2e2 e4|(3e2f2g2 a4|
e/2g/2e/2=d/2 e/2d/2c/2B/2 c/2B/2A/2B/2 A/2G/2A-|Ad G4 AB/2d/2|e/2e/2g/2e/2 g/2e/2g/2e/2 g/2^g/2=f/2^g/2 =f/2^f/2^a/2=g/2|b/2b/2g/2b/2 g/2b/2g/2b/2 g/2g/2b/2g/2 =a/2f/2e/2f/2|
a/2f/2a/2f/2 a/2f/2a/2f/2 a/2f/2a/2f/2 f/2e/2d-|de ge2c BA|G/2E/2D/2E/2 G/2E/2D/2E/2 G/2E/2D/2E/2 G/2E/2D/2E/2|^F/2G/2F/2G/2 F/2F/2F/2E/2 A4|
^C,/2D,/2E,/2F,/2 G,/2B,/2B,/2D/2 ^C/2E/2F/2A/2 B,/2E/2E/2A/2-|A2 BB4-B|E,E, B,E, =C,E, B,E,|A,G, F,G, A,G, F,D,|
E,E, B,E, CE, B,E,|A,G, F,G, A,G, F,D,|E,E, B,E, CE, B,E,|A,G, F,G, A,G, F,D,|
E,E, B,E, CE, B,A,|=C4 D4|G,G,/2G,/2 D/2G,/2G, G,/2G,/2A G,/2G,/2G,/2G,/2|GG,/2G,/2 G,/2G,/2B, z2 A,/2B,/2G,|
G,G,/2G,/2 D/2G,/2G, G,/2G,/2A G,/2G,/2G,/2G,/2|GG,/2G,/2 G,/2G,/2B,2A,/2=F,/2 E,/2C,/2B,/2A,/2|G,G,/2G,/2 D/2G,/2G, G,/2G,/2A G,/2G,/2G,/2G,/2|GG,/2G,/2 G,/2G,/2B, z2 A,/2B,/2G,|
=F,G,/2G,/2 D,/2G,3/2 CD D,E,|CE, ^F,B,4-B,|B,D, B,3E, D,C-|C2 Gc e4|
B,D, E,2 E,D, E,/2D,/2C,-|C,4 C,C, B,A,|D,2 D,2 G,F, E,A,-|A,2 A,2 A,D, AA|
A/2B/2d/2B/2 ^Gc/2^d/2 c/2B^c/2 f/2=c/2c|c/2=d/2g/2=f/2 d/2^c/2^d/2^g/2 ^f/2=d3/2 G,2|D,4 G,F, E,D-|D4 DF, F,D,|
B,D, B,B, ^F,E, F,G,-|G,F, E,F,2E, F,2|B,D, B,E, EE, D,C,-|C,2 C,D2F, FD,|
